images/icons/eMail-white.svg

<svg width="48" height="52" viewBox="0 0 48 52" fill="none" xmlns="http://www.w3.org/2000/svg">
<path d="M43.5 6.39258H4.50003C2.01856 6.39258 0 8.54309 0 11.1868V39.9517C0 42.5954 2.01856 44.7459 4.50003 44.7459H43.5C45.9814 44.7459 48 42.5954 48 39.9517V11.1868C48 8.54309 45.9814 6.39258 43.5 6.39258V6.39258ZM43.5 9.58867C43.7038 9.58867 43.8976 9.63372 44.0749 9.71239L24 28.2488L3.925 9.71239C4.10225 9.63382 4.29613 9.58867 4.49993 9.58867H43.5ZM43.5 41.5497H4.50003C3.67241 41.5497 2.99999 40.8334 2.99999 39.9516V13.0891L23.0171 31.5713C23.2998 31.8318 23.6499 31.9614 24 31.9614C24.3501 31.9614 24.7002 31.8319 24.9829 31.5713L45 13.0891V39.9517C44.9999 40.8334 44.3276 41.5497 43.5 41.5497V41.5497Z" fill="#FBFDFF"/>
</svg>

<svg width="48" height="52" fill="none" xmlns="http://www.w3.org/2000/svg"><path d="M43.5 6.393h-39c-2.481 0-4.5 2.15-4.5 4.794v28.765c0 2.643 2.019 4.794 4.5 4.794h39c2.481 0 4.5-2.15 4.5-4.794V11.187c0-2.644-2.019-4.794-4.5-4.794zm0 3.196c.204 0 .398.045.575.123L24 28.25 3.925 9.712c.177-.078.371-.123.575-.123h39zm0 31.96h-39c-.828 0-1.5-.716-1.5-1.597V13.089l20.017 18.482c.283.26.633.39.983.39s.7-.13.983-.39L45 13.09v26.863c0 .881-.672 1.598-1.5 1.598z" fill="#FBFDFF"/></svg>
